X: 697
T: Agent Craig
R: jig
M: 6/8
K: Aminor
A2e edB|d2e edB|A2e edB|deg edB
A2e edB|d2e edB|ege edB|1 deg edB:|2 deg deg ]|
|:a2g ed(a|a2)c deg|a2g ega|gec deg|
a2g ed(a|a2)c deg|c>cc deg|1 edc deg:|2 edc dcB||

